OFDR/img/documents/fire-extinguisher.svg

<svg width="42" height="70" viewBox="0 0 42 70" fill="none" xmlns="http://www.w3.org/2000/svg">
<g id="fire-extinguisher">
<path id="Shape" fill-rule="evenodd" clip-rule="evenodd" d="M41.5678 1.35279C41.295 1.14115 40.9391 1.06594 40.6032 1.14949L25.1755 4.98132C24.5343 2.13455 21.9724 0 18.9165 0C15.763 0 13.1356 2.27306 12.6022 5.25626H7.93196C3.55823 5.25626 0 8.67062 0 12.8673C0 13.4844 0.503393 13.9844 1.12431 13.9844C1.74523 13.9844 2.24863 13.4844 2.24863 12.8673C2.24863 9.90247 4.79812 7.4903 7.93196 7.4903H12.5015V9.72434H7.93196C7.31104 9.72434 6.80764 10.2243 6.80764 10.8414C6.80764 11.4584 7.31104 11.9584 7.93196 11.9584H12.5015V17.9492C9.97146 19.0982 7.80933 20.8978 6.21565 23.1891C4.43264 25.7526 3.49017 28.7602 3.49017 31.8869V68.883C3.49017 69.5 3.99356 70 4.61448 70H33.2184C33.8393 70 34.3427 69.5 34.3427 68.883V31.8869C34.3427 28.7602 33.4002 25.7526 31.6172 23.1891C30.0235 20.8978 27.8614 19.0982 25.3314 17.9492V13.9331L40.6032 17.7262C40.6932 17.7486 40.7847 17.7596 40.8757 17.7596C41.1239 17.7596 41.368 17.6778 41.5677 17.5229C41.8405 17.3113 42 16.9865 42 16.6426V2.23315C42.0001 1.88926 41.8406 1.56443 41.5678 1.35279ZM18.9165 2.23404C21.2138 2.23404 23.0828 4.09098 23.0828 6.37328V17.569H14.7502V6.37328C14.7502 4.09098 16.6192 2.23404 18.9165 2.23404ZM5.7388 60.8176V67.766H32.0941V60.8176H5.7388ZM32.0455 30.7699H13.609C12.9881 30.7699 12.4847 31.2699 12.4847 31.8869C12.4847 32.504 12.9881 33.004 13.609 33.004H32.0941V58.5836H5.7388V33.004H9.11174C9.73266 33.004 10.236 32.504 10.236 31.8869C10.236 31.2699 9.73266 30.7699 9.11174 30.7699H5.78737C6.19767 25.9112 9.26539 21.7003 13.852 19.803H23.9809C28.5675 21.7003 31.6352 25.9112 32.0455 30.7699ZM25.3314 11.6304L39.7515 15.212V3.66383L25.3314 7.24545V11.6304Z" fill="#86ADEF"/>
<path id="Shape_2" fill-rule="evenodd" clip-rule="evenodd" d="M18.5 56C16.1239 56 14.048 55.172 12.4968 53.6055C10.8916 51.9845 9.98169 49.6781 10.0003 47.2776C10.0346 42.8277 13.1826 38.8511 13.3165 38.6839C13.534 38.4126 13.8669 38.2571 14.213 38.2703C14.5601 38.2809 14.8819 38.4542 15.0824 38.7384L15.305 39.0539C15.8467 37.871 16.649 36.4279 17.7062 35.3365C17.9145 35.1214 18.201 35 18.5 35C18.799 35 19.0855 35.1214 19.2938 35.3365C20.3511 36.4277 21.1532 37.8708 21.6948 39.0539L21.9174 38.7383C22.1179 38.4542 22.4398 38.2809 22.7869 38.2703C23.1334 38.2574 23.4659 38.4126 23.6833 38.6839C23.8174 38.8511 26.9654 42.8277 26.9997 47.2776C27.0182 49.6779 26.1083 51.9844 24.5032 53.6055C22.9521 55.1719 20.8761 56 18.5 56ZM14.4575 41.6934L14.1941 41.3201C13.3673 42.6726 12.231 44.9535 12.2128 47.2949C12.1988 49.1084 12.8749 50.8393 14.0674 52.0437C15.1939 53.1815 16.7266 53.7827 18.5 53.7827C20.2734 53.7827 21.8061 53.1812 22.9326 52.0437C24.1251 50.8393 24.801 49.1084 24.787 47.2949C24.769 44.9536 23.6329 42.6731 22.8059 41.3201L22.5426 41.6933L22.5426 41.6933C22.2166 42.1549 22.0677 42.3657 21.6327 42.451C21.1008 42.5552 20.5729 42.2588 20.3836 41.7506C20.3804 41.7419 20.3717 41.7172 20.3585 41.6777C20.1603 41.0829 19.524 39.3219 18.5 37.8556C17.476 39.3218 16.8397 41.0829 16.6415 41.6777C16.6284 41.7172 16.6196 41.7417 16.6164 41.7506C16.4631 42.162 16.082 42.4441 15.6446 42.4698C15.0308 42.5026 14.7779 42.1472 14.4575 41.6934Z" fill="#86ADEF"/>
</g>
</svg>

<svg width="42" height="70" fill="none" xmlns="http://www.w3.org/2000/svg"><g fill-rule="evenodd" clip-rule="evenodd" fill="#86ADEF"><path d="M41.568 1.353a1.13 1.13 0 00-.965-.204L25.175 4.981A6.416 6.416 0 0018.916 0c-3.153 0-5.78 2.273-6.314 5.256h-4.67C3.558 5.256 0 8.671 0 12.867a1.12 1.12 0 001.124 1.117c.621 0 1.125-.5 1.125-1.117 0-2.965 2.55-5.377 5.683-5.377h4.57v2.234h-4.57c-.621 0-1.124.5-1.124 1.117a1.12 1.12 0 001.124 1.117h4.57v5.991a15.39 15.39 0 00-6.286 5.24 15.161 15.161 0 00-2.726 8.698v36.996A1.12 1.12 0 004.614 70h28.604c.621 0 1.125-.5 1.125-1.117V31.887c0-3.127-.943-6.134-2.726-8.698a15.391 15.391 0 00-6.286-5.24v-4.016l15.272 3.793a1.128 1.128 0 00.965-.203c.273-.212.432-.537.432-.88V2.233c0-.344-.16-.669-.432-.88zm-22.651.881c2.297 0 4.166 1.857 4.166 4.14v11.195H14.75V6.373c0-2.282 1.87-4.139 4.166-4.139zM5.738 60.818v6.948h26.355v-6.948H5.74zM32.045 30.77H13.61c-.62 0-1.124.5-1.124 1.117a1.12 1.12 0 001.124 1.117h18.485v25.58H5.74v-25.58h3.373c.62 0 1.124-.5 1.124-1.117a1.12 1.12 0 00-1.124-1.117H5.787c.41-4.859 3.478-9.07 8.065-10.967h10.129c4.586 1.897 7.654 6.108 8.064 10.967zm-6.714-19.14l14.42 3.582V3.664l-14.42 3.581v4.385z"/><path d="M18.5 56c-2.376 0-4.452-.828-6.003-2.395-1.605-1.62-2.515-3.927-2.497-6.327.035-4.45 3.183-8.427 3.316-8.594a1.105 1.105 0 011.766.054l.223.316c.542-1.183 1.344-2.626 2.401-3.718a1.105 1.105 0 011.588 0c1.057 1.092 1.86 2.535 2.4 3.718l.223-.316a1.106 1.106 0 011.766-.054c.134.167 3.282 4.144 3.317 8.594.018 2.4-.892 4.706-2.497 6.328C22.953 55.172 20.876 56 18.5 56zm-4.043-14.307l-.263-.373c-.827 1.353-1.963 3.633-1.981 5.975-.014 1.813.662 3.544 1.854 4.749 1.127 1.138 2.66 1.739 4.433 1.739 1.773 0 3.306-.602 4.433-1.74 1.192-1.204 1.868-2.935 1.854-4.748-.018-2.341-1.154-4.622-1.981-5.975l-.263.373c-.326.462-.475.673-.91.758a1.106 1.106 0 01-1.274-.773c-.199-.595-.835-2.356-1.859-3.822-1.024 1.466-1.66 3.227-1.858 3.822l-.026.073a1.107 1.107 0 01-.971.719c-.614.033-.867-.323-1.188-.777z"/></g></svg>
